Catalina-light/actions/16/edit-find-symbolic.svg

<?xml version="1.0" encoding="UTF-8" standalone="no"?>
<svg
   xmlns:dc="http://purl.org/dc/elements/1.1/"
   xmlns:cc="http://creativecommons.org/ns#"
   xmlns:rdf="http://www.w3.org/1999/02/22-rdf-syntax-ns#"
   xmlns:svg="http://www.w3.org/2000/svg"
   xmlns="http://www.w3.org/2000/svg"
   xmlns:sodipodi="http://sodipodi.sourceforge.net/DTD/sodipodi-0.dtd"
   xmlns:inkscape="http://www.inkscape.org/namespaces/inkscape"
   viewBox="0 0 16 16"
   id="svg3313"
   version="1.1"
   inkscape:version="0.91 r13725"
   sodipodi:docname="edit-find-symbolic.svg">
  <metadata
     id="metadata3321">
    <rdf:RDF>
      <cc:Work
         rdf:about="">
        <dc:format>image/svg+xml</dc:format>
        <dc:type
           rdf:resource="http://purl.org/dc/dcmitype/StillImage" />
      </cc:Work>
    </rdf:RDF>
  </metadata>
  <sodipodi:namedview
     pagecolor="#ffffff"
     bordercolor="#666666"
     borderopacity="1"
     objecttolerance="10"
     gridtolerance="10"
     guidetolerance="10"
     inkscape:pageopacity="0"
     inkscape:pageshadow="2"
     inkscape:window-width="640"
     inkscape:window-height="480"
     id="namedview3319"
     showgrid="false"
     inkscape:zoom="22.627417"
     inkscape:cx="3.2567303"
     inkscape:cy="4.1297116"
     inkscape:current-layer="svg3313" />
  <defs
     id="defs3051">
    <style
       type="text/css"
       id="current-color-scheme">
      .ColorScheme-Text {
        color:#bebebe;
      }
      </style>
  </defs>
  <path
     style="color:#bebebe;fill:currentColor;fill-opacity:1;stroke:none"
     class="ColorScheme-Text"
     d="M 7.1299439,2.0029511 C 6.6407508,2.0194512 6.1624106,2.1099764 5.6963736,2.2738517 5.0749102,2.4923271 4.5323263,2.8063528 4.0659233,3.2172035 3.5995205,3.6280543 3.2176344,4.1285303 2.9211084,4.7186314 2.6244904,5.3088075 2.4538893,5.9372338 2.410681,6.6023351 2.367471,7.2672864 2.455445,7.9104126 2.6731868,8.5343388 2.890852,9.1580393 3.2045376,9.7038163 3.6138306,10.171891 c 0.4092877,0.468301 0.9069841,0.852227 1.4948222,1.149977 0.5879239,0.297751 1.2129251,0.467776 1.8754552,0.511127 1.0194275,0.06675 1.9624651,-0.1617 2.829224,-0.684002 l 2.229837,2.542805 c 0.155281,0.187651 0.357781,0.2898 0.608138,0.306151 0.240889,0.01575 0.454308,-0.05925 0.64168,-0.224101 0.187537,-0.16515 0.289088,-0.369075 0.304798,-0.610801 0.01609,-0.246301 -0.05547,-0.461251 -0.215839,-0.644476 L 11.153568,9.9698413 c 0.628583,-0.794852 0.976258,-1.704303 1.04273,-2.7274549 C 12.239509,6.57736 12.153005,5.9326588 11.935249,5.3089575 11.71759,4.6851064 11.4039,4.1394053 10.994606,3.6713294 10.585313,3.2031034 10.086169,2.8205278 9.4983251,2.5228522 8.9103172,2.2251766 8.2854004,2.0536512 7.622871,2.0102261 c -0.1656327,-0.0105 -0.3298624,-0.01275 -0.4929271,-0.0075 z m 0.3777162,1.7943035 c 0.8571006,0.05625 1.5697622,0.4090509 2.1394179,1.060502 0.569572,0.6513763 0.825913,1.4071528 0.770016,2.2674044 -0.0559,0.8605517 -0.40836,1.5771032 -1.0573131,2.1489043 C 8.7107432,9.8457903 7.9579624,10.103566 7.1007771,10.047466 6.2436765,9.9912173 5.5309298,9.6369153 4.9613586,8.9854647 4.3917926,8.3340135 4.1339813,7.578462 4.1898838,6.7180603 4.2457805,5.8576586 4.5982493,5.1423072 5.2471974,4.5706561 5.8961506,3.99893 6.6505599,3.7411545 7.5076601,3.7972546 Z"
     id="path3317"
     inkscape:connector-curvature="0" />
</svg>

<svg version="1.1" viewBox="0 0 16 16" xmlns="http://www.w3.org/2000/svg">
<defs>
<style id="current-color-scheme" type="text/css">.ColorScheme-Text {
        color:#363636;
      }</style>
</defs>
<path class="ColorScheme-Text" d="m7.1299 2.003c-0.48919 0.0165-0.96753 0.10703-1.4336 0.2709-0.62146 0.21848-1.164 0.5325-1.6305 0.94335-0.4664 0.41085-0.84829 0.91133-1.1448 1.5014-0.29662 0.59018-0.46722 1.2186-0.51043 1.8837-0.04321 0.66495 0.044764 1.3081 0.26251 1.932 0.21767 0.6237 0.53135 1.1695 0.94064 1.6376 0.40929 0.4683 0.90698 0.85223 1.4948 1.15 0.58792 0.29775 1.2129 0.46778 1.8755 0.51113 1.0194 0.06675 1.9625-0.1617 2.8292-0.684l2.2298 2.5428c0.15528 0.18765 0.35778 0.2898 0.60814 0.30615 0.24089 0.01575 0.45431-0.05925 0.64168-0.2241 0.18754-0.16515 0.28909-0.36908 0.3048-0.6108 0.01609-0.2463-0.05547-0.46125-0.21584-0.64448l-2.2284-2.5487c0.62858-0.79485 0.97626-1.7043 1.0427-2.7275 0.043211-0.66503-0.043293-1.3097-0.26105-1.9334-0.21766-0.62385-0.53135-1.1696-0.94064-1.6376-0.40929-0.46823-0.90844-0.8508-1.4963-1.1485-0.58801-0.29768-1.2129-0.4692-1.8755-0.51263-0.16563-0.0105-0.32986-0.01275-0.49293-0.0075zm0.37772 1.7943c0.8571 0.05625 1.5698 0.40905 2.1394 1.0605 0.56957 0.65138 0.82591 1.4072 0.77002 2.2674-0.0559 0.86055-0.40836 1.5771-1.0573 2.1489-0.64904 0.57172-1.4018 0.8295-2.259 0.7734-0.8571-0.056249-1.5698-0.41055-2.1394-1.062-0.56957-0.65145-0.82738-1.407-0.77147-2.2674 0.055897-0.8604 0.40837-1.5758 1.0573-2.1474 0.64895-0.57173 1.4034-0.8295 2.2605-0.7734z" color="#363636" fill="#363636"/>
</svg>
